X:657
M:C|
L:1/8
K:F
c|fcfa fcfa|cfaf egga|1 fcfa cfag|fdcA F/F/F F:|2 fgag ~fcdf|cABG F/F/F ~F2||

